X:1
T:Preludio Grave
T: Grave
T:3rd movement from Trio Sonata RV 64 adapted for Oboe, Flute and Cello 
T:Antonio Vivaldi (1678-1741)
T:twoflutes 2019 / Felix Scharpf / https://commons.wikimedia.org/wiki/File:Ca%27_Rezzonico_-_La_venditrice_di_essenze_-_Pietro_Longhi.jpg
T:twoflutes 2019 / Felix Scharpf / https://commons.wikimedia.org/wiki/File:Ca%27_Rezzonico_-_La_venditrice_di_essenze_-_Pietro_Longhi.jpg
T:twoflutes 2019 / Felix Scharpf / https://commons.wikimedia.org/wiki/File:Ca%27_Rezzonico_-_La_venditrice_di_essenze_-_Pietro_Longhi.jpg
C:Antonio Vivaldi
Z:twoflutes 2019 / Felix Scharpf / https://commons.wikimedia.org/wiki/File:Ca%27_Rezzonico_-_La_venditrice_di_essenze_-_Pietro_Longhi.jpg
%%score [ 1 2 3 ]
L:1/8
Q:1/8=80
M:4/4
K:F
V:1 treble nm="Oboe" snm="Ob."
V:2 treble nm="Flöte" snm="Fl."
V:3 bass nm="Violoncello" snm="Vc."
V:1
"^Grave" z8 |!mp! a3 d gg (a>g) | f(e/d/) aA d(e/f/) e(f/d/) | ^cA f4 (_ed) | %4
 ^c(c/d/) e2-!>(! eA d2- | d2 ^c2!p! d2!>)! z2 | z2 z d (b3 a) | (a3 g) (g3 f) | %8
!<(! (f3 e) e(d/c/) =B2 | A2!mf! e!<)!A f4- | f2!>(! (_ed) ^c(=B/A/) f2- | %11
 fe/d/!mp! P^c2!>)! d2 z/!mf! (d/g/f/) | e2- e/(c/f/e/)!mp!!>(! d2- d/(=B/e/d/) | %13
 A/[Q:1/8=60]"_rit."(^c/d/F/)[Q:1/8=50] (PE>D)!pp! !fermata!D4!>)! |] %14
V:2
!pp!!<(! a3 d gg (a>g)!<)! | (f/e/)d z!mp! (a/b/) ^c3 c | dD z/ (e/a/g/) f2 g(a/f/) | e2 z c B4 | %4
 E(e^cA)!>(! f2- f/(g/a/b/) | e4!p! d2!>)! z d | a4- ag g2- | gf f2- fe e2- | %8
!<(! ed d(c/=B/) c A2 _A | A2!<)! z2 z2 AD |!>(! B4 E e2 (d/^c/) | %11
 d/(D/G/F/)!>)!!mp! E2 D/!mf!(A/d/c/)!mf! B2- | B/(G/c/B/) A2-!mp!!>(! A/(F/B/A/) G2- | %13
 G/(E/F/D/) (P^C>D)!pp! !fermata!D4!>)! |] %14
V:3
 z/ z/4!p!!<(! D/<D/D/4 !wedge!D!wedge!D, z/ z/4 E/<E/E/4 !wedge!E!wedge!E,!<)! | %1
 z/ z/4!mp! F/<F/F/4 !wedge!F!wedge!F, z/ z/4 E/<E/E/4 !wedge!E!wedge!E, | %2
 z/ z/4 D/<D/D/4 !wedge!C!wedge!A, z/ z/4 B,/<B,/A,/4 !wedge!G,!wedge!G,, | %3
 z/ z/4 A,/<A,/A,/4 !wedge!A,!wedge!A,, z/ z/4 G,/<G,/G,/4 !wedge!G,!wedge!G,, | %4
 z/ z/4 A,/<A,/A,/4 !wedge!A,!wedge!A,, z/ z/4 D/<D/D/4 !wedge!D!wedge!D, | %5
 z/ z/4 G,/<G,/G,/4 !wedge!A,!wedge!A,, z/ z/4 D/<D/D/4 !wedge!D!wedge!D, | %6
 z/ z/4 F/<F/E/4 !wedge!D!wedge!D, z/ z/4 D/<E/D/4 !wedge!C!wedge!C, | %7
 z/ z/4 C/<D/C/4 !wedge!B,!wedge!B,, z/ z/4 B,/<C/B,/4 !wedge!A,!wedge!A,, | %8
!<(! z/ z/4 A,/<=B,/A,/4 !wedge!_A,!wedge!_A,, z/ z/4 =A,/<A,/D,/4 !wedge!E,!wedge!E,, | %9
 z/ z/4 A,/<A,/A,/4!mf! !wedge!A,!<)!!wedge!A,, z/ z/4 D/<D/D/4 !wedge!D!wedge!D, | %10
 z/ z/4 G,/<G,/G,/4!>(! !wedge!G,!wedge!G,, z/ z/4 A,/<A,/A,/4 !wedge!A,!wedge!A,, | %11
 z/ z/4 G,/<G,/G,/4!mp! !wedge!A,!wedge!A,,!>)! z/ z/4!mf! D/<D/D/4 !wedge!G,!wedge!G,, | %12
 z/ z/4 C/<C/C/4 !wedge!F,!wedge!F,,!mp!!>(! z/ z/4 B,/<B,/B,/4 !wedge!E,!wedge!E,, | %13
 z/ z/4 A,/<A,/A,/4 !wedge!A,!wedge!A,,!pp! z3/4 D,/<D,/D,/4 !fermata!D,2!>)! |] %14

